!!!SOCIAL_FUNCTION:	moccasin game songs
!!!PDT:	1909
!!!OTL: No_174.krn
!!!REG: Great_Lakes
!!!LANG: Non-Tone
!!!LING_GROUP: Algonquin
**kern	**kern
*staff2	*staff1
=1-	=1-
*clefF4	*clefG2
*k[f#c#g#]	*k[f#c#g#]
*M2/4	*M2/4
16GG#/LK	16F#/LK
8GG#^/J	8.f#/J
16r	.
16GG#/LK	8.f#/L
8GG#^/J	.
16r	16e/Jk
=2	=2
2r	16f#/LK
.	8.f#/J
.	8.f#/L
.	16e/Jk
=3	=3
2r	16d/LK
.	8.B/J
.	8.B/L
.	16A/Jk
=4	=4
2r	16B/LK
.	8.B/J
.	8.B/L
.	16A/Jk
=5	=5
2r	16A/LK
.	8.F#/J
.	4F#/
=6	=6
2r	16A/LK
.	8.B/J
.	8c#/
.	24B/LL
.	24c#/
.	24B/JJ
=7	=7
2r	4A/
.	4F#/
=8	=8
2r	4A/
.	8.F#/L
.	16F#/Jk
=9	=9
2r	2F#/
==	==
*-	*-
